X:57
T:Ode to Joy
C:Beethoven, Ludwig
N:
L:1/8
Q:1/4=152
M:4/4
K:G
z8 | "G"B2 B2 c2 d2 | d2 c2 B2 A2 | "G"G2 G2 A2 B2 | "D"B2 BA A4 | "G"B2 B2 c2 d2 | 
d2 c2 B2 A2 | "G"G2 G2 A2 B2 | "D"A2 AG "G"G4 | "D"A2 A2 "G"B2 G2 | "D"A2 Bc "G"B2 G2 | 
"D"A2 Bc "B7"B2 A2 | "Em"G2 "A"A2 "D"D4 | "G"B2 B2 c2 d2 | d2 c2 B2 A2 | "G"G2 G2 A2 B2 | 
"D"A2 AG "G"G4 | z8 | 
 

